static/img/in-field/switch-icon-left-dark.svg

<svg fill="none" height="57" viewBox="0 0 118 57" width="118" xmlns="http://www.w3.org/2000/svg"><g fill="#fff"><path d="m8.00008 15.9999c-.5894 0-1.14893.1171-1.65848.3284-.51016.2116-1.09522-.0305-1.30678-.5407-.21155-.5101.03051-1.0952.54067-1.3068.74814-.3102 1.56769-.4809 2.42459-.4809h2.00002c.5523 0 1 .4477 1 1s-.4477 1-1 1z"/><path d="m13.0001 14.9999c0-.5523.4477-1 1-1h4c.5523 0 1 .4477 1 1s-.4477 1-1 1h-4c-.5523 0-1-.4477-1-1z"/><path d="m21.0001 14.9999c0-.5523.4477-1 1-1h2c.8569 0 1.6764.1707 2.4246.4809.5101.2116.7522.7967.5406 1.3068-.2115.5102-.7966.7523-1.3067.5407-.5096-.2113-1.0691-.3284-1.6585-.3284h-2c-.5523 0-1-.4477-1-1z"/><path d="m3.4545 17.3679c.51016.2116.75223.7967.54067 1.3068-.2113.5096-.32842 1.0691-.32842 1.6585v2c0 .5523-.44772 1-1 1-.55229 0-1-.4477-1-1v-2c0-.8569.17073-1.6764.48097-2.4246.21155-.5101.79662-.7522 1.30678-.5407z"/><path d="m28.5457 17.368c.5101-.2116 1.0952.0305 1.3067.5406.3103.7482.481 1.5677.481 2.4246v2c0 .5523-.4477 1-1 1s-1-.4477-1-1v-2c0-.5894-.1171-1.1489-.3284-1.6585-.2116-.5101.0305-1.0952.5407-1.3067z"/><path d="m2.66675 25.3332c.55228 0 1 .4477 1 1v4c0 .5523-.44772 1-1 1-.55229 0-1-.4477-1-1v-4c0-.5523.44771-1 1-1z"/><path d="m29.3334 25.3332c.5523 0 1 .4477 1 1v4c0 .5523-.4477 1-1 1s-1-.4477-1-1v-4c0-.5523.4477-1 1-1z"/><path d="m2.66675 33.3332c.55228 0 1 .4477 1 1v2c0 .5894.11712 1.1489.32842 1.6585.21155.5102-.03051 1.0952-.54067 1.3068-.51016.2115-1.09523-.0305-1.30678-.5407-.31024-.7481-.48097-1.5677-.48097-2.4246v-2c0-.5523.44771-1 1-1z"/><path d="m29.3334 33.3332c.5523 0 1 .4477 1 1v2c0 .8569-.1707 1.6765-.481 2.4246-.2115.5102-.7966.7522-1.3067.5407-.5102-.2116-.7523-.7966-.5407-1.3068.2113-.5096.3284-1.0691.3284-1.6585v-2c0-.5523.4477-1 1-1z"/><path d="m5.03482 40.8788c.21155-.5102.79662-.7522 1.30678-.5407.50955.2113 1.06908.3284 1.65848.3284h2.00002c.5523 0 1 .4478 1 1 0 .5523-.4477 1-1 1h-2.00002c-.8569 0-1.67645-.1707-2.42459-.4809-.51016-.2116-.75222-.7966-.54067-1.3068z"/><path d="m26.9653 40.8788c.2116.5102-.0305 1.0952-.5406 1.3068-.7482.3102-1.5677.4809-2.4246.4809h-2c-.5523 0-1-.4477-1-1 0-.5522.4477-1 1-1h2c.5894 0 1.1489-.1171 1.6585-.3284.5101-.2115 1.0952.0305 1.3067.5407z"/><path d="m13.0001 41.6665c0-.5522.4477-1 1-1h4c.5523 0 1 .4478 1 1 0 .5523-.4477 1-1 1h-4c-.5523 0-1-.4477-1-1z"/><path d="m27.3739 18.4545c.3905-.3905.3905-1.0237 0-1.4142-.3906-.3905-1.0237-.3905-1.4143 0l-1.3282 1.3283c-.3906.3905-.3906 1.0237 0 1.4142.3905.3905 1.0237.3905 1.4142 0z"/><path d="m23.389 22.4394c.3905-.3906.3905-1.0237 0-1.4142-.3905-.3906-1.0237-.3906-1.4142 0l-2.6566 2.6565c-.3905.3905-.3905 1.0237 0 1.4142.3906.3905 1.0237.3905 1.4143 0z"/><path d="m18.0759 27.7525c.3905-.3905.3905-1.0237 0-1.4142-.3905-.3906-1.0237-.3906-1.4142 0l-.6616.6616-.6616-.6616c-.3906-.3906-1.0237-.3906-1.4142 0-.3906.3905-.3906 1.0237 0 1.4142l.6616.6616-.5808.5807c-.3905.3905-.3905 1.0237 0 1.4142.3906.3906 1.0237.3906 1.4143 0l.5807-.5807.5807.5807c.3905.3906 1.0237.3906 1.4142 0 .3905-.3905.3905-1.0237 0-1.4142l-.5807-.5807z"/><path d="m12.7628 33.0656c.3905-.3905.3905-1.0237 0-1.4142s-1.0237-.3905-1.4142 0l-2.65658 2.6565c-.39052.3906-.39052 1.0237 0 1.4143.39053.3905 1.02369.3905 1.41418 0z"/><path d="m7.44968 38.3787c.39052-.3905.39052-1.0237 0-1.4142-.39053-.3905-1.02369-.3905-1.41421 0l-1.32828 1.3283c-.39053.3905-.39053 1.0237 0 1.4142.39052.3905 1.02369.3905 1.41421 0z"/><path d="m25.8788 39.707c.3905.3905 1.0237.3905 1.4142 0s.3905-1.0237 0-1.4142l-1.3283-1.3283c-.3905-.3905-1.0237-.3905-1.4142 0s-.3905 1.0237 0 1.4142z"/><path d="m21.8939 35.7222c.3906.3905 1.0237.3905 1.4142 0 .3906-.3906.3906-1.0237 0-1.4143l-2.6565-2.6565c-.3905-.3905-1.0237-.3905-1.4142 0-.3906.3905-.3906 1.0237 0 1.4142z"/><path d="m11.2677 25.0959c.3905.3905 1.0237.3905 1.4142 0s.3905-1.0237 0-1.4142l-2.6565-2.6565c-.39057-.3906-1.02374-.3906-1.41426 0-.39052.3905-.39052 1.0236 0 1.4142z"/><path d="m5.95458 19.7828c.39053.3905 1.02369.3905 1.41422 0 .39052-.3905.39052-1.0237 0-1.4142l-1.32828-1.3283c-.39053-.3905-1.02369-.3905-1.41421 0-.39053.3905-.39053 1.0237 0 1.4142z"/><path d="m12.0747 21.5186c.3971-.1203.8194-.1854 1.2587-.1854h1c.5523 0 1-.4477 1-1s-.4477-1-1-1h-1c-.6379 0-1.2555.0946-1.8387.2713-.5285.1601-.8272.7184-.667 1.247.1601.5286.7184.8272 1.247.6671z"/><path d="m17.6667 19.3332c-.5522 0-1 .4477-1 1s.4478 1 1 1h1c.4394 0 .8617.0651 1.2588.1854.5286.1601 1.0869-.1385 1.247-.6671s-.1385-1.0869-.6671-1.247c-.5831-.1767-1.2007-.2713-1.8387-.2713z"/><path d="m9.18546 24.4078c.16014-.5286-.13853-1.0869-.66709-1.247-.52855-.1601-1.08685.1385-1.24699.6671-.17667.5831-.2713 1.2007-.2713 1.8386v1c0 .5523.44772 1 1 1 .55229 0 1-.4477 1-1v-1c0-.4393.06506-.8616.18538-1.2587z"/><path d="m24.7288 23.8279c-.1602-.5286-.7185-.8272-1.247-.6671-.5286.1601-.8272.7184-.6671 1.247.1203.3971.1854.8194.1854 1.2587v1c0 .5523.4477 1 1 1s1-.4477 1-1v-1c0-.6379-.0946-1.2555-.2713-1.8386z"/><path d="m9.00008 29.9999c0-.5523-.44771-1-1-1-.55228 0-1 .4477-1 1v1c0 .6379.09463 1.2555.2713 1.8386.16014.5286.71844.8273 1.24699.6671.52856-.1601.82723-.7184.66709-1.247-.12032-.3971-.18538-.8194-.18538-1.2587z"/><path d="m25.0001 29.9999c0-.5523-.4477-1-1-1s-1 .4477-1 1v1c0 .4393-.0651.8616-.1854 1.2587-.1601.5286.1385 1.0869.6671 1.247.5285.1602 1.0868-.1385 1.247-.6671.1767-.5831.2713-1.2007.2713-1.8386z"/><path d="m12.0747 35.1478c-.5286-.1601-1.0869.1386-1.247.6671-.1602.5286.1385 1.0869.667 1.247.5832.1767 1.2008.2713 1.8387.2713h1c.5523 0 1-.4477 1-1s-.4477-1-1-1h-1c-.4393 0-.8616-.065-1.2587-.1854z"/><path d="m20.5054 37.0619c.5286-.1601.8272-.7184.6671-1.247-.1601-.5285-.7184-.8272-1.247-.6671-.3971.1204-.8194.1854-1.2588.1854h-1c-.5522 0-1 .4477-1 1s.4478 1 1 1h1c.638 0 1.2556-.0946 1.8387-.2713z"/></g><rect fill="#019aeb" height="32" rx="16" transform="matrix(1 0 0 -1 47 44.3332)" width="64"/><path d="m108 28.3332c0 7.1797-5.82 13-13 13-7.1797 0-13-5.8203-13-13s5.8203-13 13-13c7.18 0 13 5.8203 13 13z" fill="#fff"/></svg>

<svg width="118" height="57" viewBox="0 0 118 57" fill="none" xmlns="http://www.w3.org/2000/svg">
<path d="M8.00008 15.9999C7.41068 15.9999 6.85115 16.117 6.3416 16.3283C5.83144 16.5399 5.24638 16.2978 5.03482 15.7876C4.82327 15.2775 5.06533 14.6924 5.57549 14.4808C6.32363 14.1706 7.14318 13.9999 8.00008 13.9999H10.0001C10.5524 13.9999 11.0001 14.4476 11.0001 14.9999C11.0001 15.5522 10.5524 15.9999 10.0001 15.9999H8.00008Z" fill="#fff"/>
<path d="M13.0001 14.9999C13.0001 14.4476 13.4478 13.9999 14.0001 13.9999H18.0001C18.5524 13.9999 19.0001 14.4476 19.0001 14.9999C19.0001 15.5522 18.5524 15.9999 18.0001 15.9999H14.0001C13.4478 15.9999 13.0001 15.5522 13.0001 14.9999Z" fill="#fff"/>
<path d="M21.0001 14.9999C21.0001 14.4476 21.4478 13.9999 22.0001 13.9999H24.0001C24.857 13.9999 25.6765 14.1706 26.4247 14.4808C26.9348 14.6924 27.1769 15.2775 26.9653 15.7876C26.7538 16.2978 26.1687 16.5399 25.6586 16.3283C25.149 16.117 24.5895 15.9999 24.0001 15.9999H22.0001C21.4478 15.9999 21.0001 15.5522 21.0001 14.9999Z" fill="#fff"/>
<path d="M3.4545 17.3679C3.96466 17.5795 4.20673 18.1646 3.99517 18.6747C3.78387 19.1843 3.66675 19.7438 3.66675 20.3332V22.3332C3.66675 22.8855 3.21903 23.3332 2.66675 23.3332C2.11446 23.3332 1.66675 22.8855 1.66675 22.3332V20.3332C1.66675 19.4763 1.83748 18.6568 2.14772 17.9086C2.35927 17.3985 2.94434 17.1564 3.4545 17.3679Z" fill="#fff"/>
<path d="M28.5457 17.368C29.0558 17.1564 29.6409 17.3985 29.8524 17.9086C30.1627 18.6568 30.3334 19.4763 30.3334 20.3332V22.3332C30.3334 22.8855 29.8857 23.3332 29.3334 23.3332C28.7811 23.3332 28.3334 22.8855 28.3334 22.3332V20.3332C28.3334 19.7438 28.2163 19.1843 28.005 18.6747C27.7934 18.1646 28.0355 17.5795 28.5457 17.368Z" fill="#fff"/>
<path d="M2.66675 25.3332C3.21903 25.3332 3.66675 25.7809 3.66675 26.3332V30.3332C3.66675 30.8855 3.21903 31.3332 2.66675 31.3332C2.11446 31.3332 1.66675 30.8855 1.66675 30.3332V26.3332C1.66675 25.7809 2.11446 25.3332 2.66675 25.3332Z" fill="#fff"/>
<path d="M29.3334 25.3332C29.8857 25.3332 30.3334 25.7809 30.3334 26.3332V30.3332C30.3334 30.8855 29.8857 31.3332 29.3334 31.3332C28.7811 31.3332 28.3334 30.8855 28.3334 30.3332V26.3332C28.3334 25.7809 28.7811 25.3332 29.3334 25.3332Z" fill="#fff"/>
<path d="M2.66675 33.3332C3.21903 33.3332 3.66675 33.7809 3.66675 34.3332V36.3332C3.66675 36.9226 3.78387 37.4821 3.99517 37.9917C4.20672 38.5019 3.96466 39.0869 3.4545 39.2985C2.94434 39.51 2.35927 39.268 2.14772 38.7578C1.83748 38.0097 1.66675 37.1901 1.66675 36.3332V34.3332C1.66675 33.7809 2.11446 33.3332 2.66675 33.3332Z" fill="#fff"/>
<path d="M29.3334 33.3332C29.8857 33.3332 30.3334 33.7809 30.3334 34.3332V36.3332C30.3334 37.1901 30.1627 38.0097 29.8524 38.7578C29.6409 39.268 29.0558 39.51 28.5457 39.2985C28.0355 39.0869 27.7934 38.5019 28.005 37.9917C28.2163 37.4821 28.3334 36.9226 28.3334 36.3332V34.3332C28.3334 33.7809 28.7811 33.3332 29.3334 33.3332Z" fill="#fff"/>
<path d="M5.03482 40.8788C5.24637 40.3686 5.83144 40.1266 6.3416 40.3381C6.85115 40.5494 7.41068 40.6665 8.00008 40.6665H10.0001C10.5524 40.6665 11.0001 41.1143 11.0001 41.6665C11.0001 42.2188 10.5524 42.6665 10.0001 42.6665H8.00008C7.14318 42.6665 6.32363 42.4958 5.57549 42.1856C5.06533 41.974 4.82327 41.389 5.03482 40.8788Z" fill="#fff"/>
<path d="M26.9653 40.8788C27.1769 41.389 26.9348 41.974 26.4247 42.1856C25.6765 42.4958 24.857 42.6665 24.0001 42.6665H22.0001C21.4478 42.6665 21.0001 42.2188 21.0001 41.6665C21.0001 41.1143 21.4478 40.6665 22.0001 40.6665H24.0001C24.5895 40.6665 25.149 40.5494 25.6586 40.3381C26.1687 40.1266 26.7538 40.3686 26.9653 40.8788Z" fill="#fff"/>
<path d="M13.0001 41.6665C13.0001 41.1143 13.4478 40.6665 14.0001 40.6665H18.0001C18.5524 40.6665 19.0001 41.1143 19.0001 41.6665C19.0001 42.2188 18.5524 42.6665 18.0001 42.6665H14.0001C13.4478 42.6665 13.0001 42.2188 13.0001 41.6665Z" fill="#fff"/>
<path d="M27.3739 18.4545C27.7644 18.064 27.7644 17.4308 27.3739 17.0403C26.9833 16.6498 26.3502 16.6498 25.9596 17.0403L24.6314 18.3686C24.2408 18.7591 24.2408 19.3923 24.6314 19.7828C25.0219 20.1733 25.6551 20.1733 26.0456 19.7828L27.3739 18.4545Z" fill="#fff"/>
<path d="M23.389 22.4394C23.7795 22.0488 23.7795 21.4157 23.389 21.0252C22.9985 20.6346 22.3653 20.6346 21.9748 21.0252L19.3182 23.6817C18.9277 24.0722 18.9277 24.7054 19.3182 25.0959C19.7088 25.4864 20.3419 25.4864 20.7325 25.0959L23.389 22.4394Z" fill="#fff"/>
<path d="M18.0759 27.7525C18.4664 27.362 18.4664 26.7288 18.0759 26.3383C17.6854 25.9477 17.0522 25.9477 16.6617 26.3383L16.0001 26.9999L15.3385 26.3383C14.9479 25.9477 14.3148 25.9477 13.9243 26.3383C13.5337 26.7288 13.5337 27.362 13.9243 27.7525L14.5859 28.4141L14.0051 28.9948C13.6146 29.3853 13.6146 30.0185 14.0051 30.409C14.3957 30.7996 15.0288 30.7996 15.4194 30.409L16.0001 29.8283L16.5808 30.409C16.9713 30.7996 17.6045 30.7996 17.995 30.409C18.3855 30.0185 18.3855 29.3853 17.995 28.9948L17.4143 28.4141L18.0759 27.7525Z" fill="#fff"/>
<path d="M12.7628 33.0656C13.1533 32.6751 13.1533 32.0419 12.7628 31.6514C12.3723 31.2609 11.7391 31.2609 11.3486 31.6514L8.69202 34.3079C8.3015 34.6985 8.3015 35.3316 8.69202 35.7222C9.08255 36.1127 9.71571 36.1127 10.1062 35.7222L12.7628 33.0656Z" fill="#fff"/>
<path d="M7.44968 38.3787C7.8402 37.9882 7.8402 37.355 7.44968 36.9645C7.05915 36.574 6.42599 36.574 6.03547 36.9645L4.70719 38.2928C4.31666 38.6833 4.31666 39.3165 4.70719 39.707C5.09771 40.0975 5.73088 40.0975 6.1214 39.707L7.44968 38.3787Z" fill="#fff"/>
<path d="M25.8788 39.707C26.2693 40.0975 26.9025 40.0975 27.293 39.707C27.6835 39.3165 27.6835 38.6833 27.293 38.2928L25.9647 36.9645C25.5742 36.574 24.941 36.574 24.5505 36.9645C24.16 37.355 24.16 37.9882 24.5505 38.3787L25.8788 39.707Z" fill="#fff"/>
<path d="M21.8939 35.7222C22.2845 36.1127 22.9176 36.1127 23.3081 35.7222C23.6987 35.3316 23.6987 34.6985 23.3081 34.3079L20.6516 31.6514C20.2611 31.2609 19.6279 31.2609 19.2374 31.6514C18.8468 32.0419 18.8468 32.6751 19.2374 33.0656L21.8939 35.7222Z" fill="#fff"/>
<path d="M11.2677 25.0959C11.6582 25.4864 12.2914 25.4864 12.6819 25.0959C13.0724 24.7054 13.0724 24.0722 12.6819 23.6817L10.0254 21.0252C9.63483 20.6346 9.00166 20.6346 8.61114 21.0252C8.22062 21.4157 8.22062 22.0488 8.61114 22.4394L11.2677 25.0959Z" fill="#fff"/>
<path d="M5.95458 19.7828C6.34511 20.1733 6.97827 20.1733 7.3688 19.7828C7.75932 19.3923 7.75932 18.7591 7.3688 18.3686L6.04052 17.0403C5.64999 16.6498 5.01683 16.6498 4.62631 17.0403C4.23578 17.4308 4.23578 18.064 4.62631 18.4545L5.95458 19.7828Z" fill="#fff"/>
<path d="M12.0747 21.5186C12.4718 21.3983 12.8941 21.3332 13.3334 21.3332H14.3334C14.8857 21.3332 15.3334 20.8855 15.3334 20.3332C15.3334 19.7809 14.8857 19.3332 14.3334 19.3332H13.3334C12.6955 19.3332 12.0779 19.4278 11.4947 19.6045C10.9662 19.7646 10.6675 20.3229 10.8277 20.8515C10.9878 21.3801 11.5461 21.6787 12.0747 21.5186Z" fill="#fff"/>
<path d="M17.6667 19.3332C17.1145 19.3332 16.6667 19.7809 16.6667 20.3332C16.6667 20.8855 17.1145 21.3332 17.6667 21.3332H18.6667C19.1061 21.3332 19.5284 21.3983 19.9255 21.5186C20.4541 21.6787 21.0124 21.3801 21.1725 20.8515C21.3326 20.3229 21.034 19.7646 20.5054 19.6045C19.9223 19.4278 19.3047 19.3332 18.6667 19.3332H17.6667Z" fill="#fff"/>
<path d="M9.18546 24.4078C9.3456 23.8792 9.04693 23.3209 8.51837 23.1608C7.98982 23.0007 7.43152 23.2993 7.27138 23.8279C7.09471 24.411 7.00008 25.0286 7.00008 25.6665V26.6665C7.00008 27.2188 7.4478 27.6665 8.00008 27.6665C8.55237 27.6665 9.00008 27.2188 9.00008 26.6665V25.6665C9.00008 25.2272 9.06514 24.8049 9.18546 24.4078Z" fill="#fff"/>
<path d="M24.7288 23.8279C24.5686 23.2993 24.0103 23.0007 23.4818 23.1608C22.9532 23.3209 22.6546 23.8792 22.8147 24.4078C22.935 24.8049 23.0001 25.2272 23.0001 25.6665V26.6665C23.0001 27.2188 23.4478 27.6665 24.0001 27.6665C24.5524 27.6665 25.0001 27.2188 25.0001 26.6665V25.6665C25.0001 25.0286 24.9055 24.411 24.7288 23.8279Z" fill="#fff"/>
<path d="M9.00008 29.9999C9.00008 29.4476 8.55237 28.9999 8.00008 28.9999C7.4478 28.9999 7.00008 29.4476 7.00008 29.9999V30.9999C7.00008 31.6378 7.09471 32.2554 7.27138 32.8385C7.43152 33.3671 7.98982 33.6658 8.51837 33.5056C9.04693 33.3455 9.3456 32.7872 9.18546 32.2586C9.06514 31.8615 9.00008 31.4392 9.00008 30.9999V29.9999Z" fill="#fff"/>
<path d="M25.0001 29.9999C25.0001 29.4476 24.5524 28.9999 24.0001 28.9999C23.4478 28.9999 23.0001 29.4476 23.0001 29.9999V30.9999C23.0001 31.4392 22.935 31.8615 22.8147 32.2586C22.6546 32.7872 22.9532 33.3455 23.4818 33.5056C24.0103 33.6658 24.5686 33.3671 24.7288 32.8385C24.9055 32.2554 25.0001 31.6378 25.0001 30.9999V29.9999Z" fill="#fff"/>
<path d="M12.0747 35.1478C11.5461 34.9877 10.9878 35.2864 10.8277 35.8149C10.6675 36.3435 10.9662 36.9018 11.4947 37.0619C12.0779 37.2386 12.6955 37.3332 13.3334 37.3332H14.3334C14.8857 37.3332 15.3334 36.8855 15.3334 36.3332C15.3334 35.7809 14.8857 35.3332 14.3334 35.3332H13.3334C12.8941 35.3332 12.4718 35.2682 12.0747 35.1478Z" fill="#fff"/>
<path d="M20.5054 37.0619C21.034 36.9018 21.3326 36.3435 21.1725 35.8149C21.0124 35.2864 20.4541 34.9877 19.9255 35.1478C19.5284 35.2682 19.1061 35.3332 18.6667 35.3332H17.6667C17.1145 35.3332 16.6667 35.7809 16.6667 36.3332C16.6667 36.8855 17.1145 37.3332 17.6667 37.3332H18.6667C19.3047 37.3332 19.9223 37.2386 20.5054 37.0619Z" fill="#fff"/>
<rect width="64" height="32" rx="16" transform="matrix(1 0 0 -1 47 44.3332)" fill="#019AEB"/>
<path d="M108 28.3332C108 35.5129 102.18 41.3332 95 41.3332C87.8203 41.3332 82 35.5129 82 28.3332C82 21.1535 87.8203 15.3332 95 15.3332C102.18 15.3332 108 21.1535 108 28.3332Z" fill="#fff"/>
</svg>
